X: 3
T: 'Round the Horn
C: Jay Ungar
M: C|
Z: Transcribed to abc by Mary Lou Knack
R: reel
K: G
(3DEF| "G"G2GA BAGA| Bd2e d4| "C"cdef e2g2| "D"a6 ga|
       "Em"b2b2 "D"agfa| "C"gfed "G"BAGB| "Am"A2d2 BAG2|1 "Em"E4- "D7"E2 :|2 "Em"E8 |]
|:"C"e3f e2d2| "G"B6 B2| "Am"A3A G2A2| "Bm"B2 d6|
"C"g3a g2e2| "G"dedc BAGB| "Am"A2d2 BAG2|1 "Em"E8 :|2 "Em"E4- "D7"E2 |]
%%text Roaring Jelly  R-25

#include "RightHeader.h"
%%footer 01/28/02 For use only by Roaring Jelly members
% ---------- set 63 ----------
% Hull's Victory (F) / Forester's Hornpipe (D) / Good For the Tongue (A)
%%text Set 63
%%vskip -1cm
%%scale .65
